src/assets/images/prototype/produits-armoire/3-vitres.svg

<svg width="357" height="697" viewBox="0 0 357 697" fill="none" xmlns="http://www.w3.org/2000/svg">
<path d="M46.8906 43.7437L46.8906 21.696L69.5225 21.5625L72.0522 43.7437L46.8906 43.7437Z" fill="white" stroke="#81EC40" stroke-width="13"/>
<path d="M291.25 229.087C274.452 193.391 232.456 136.872 213.558 113.074L139.49 113.232C130.916 114.982 121.007 118.422 117.493 124.623C108.569 140.371 128.517 142.996 128.517 156.645C128.517 170.293 117.493 162.419 117.493 173.968C117.493 185.517 134.816 194.966 128.517 203.365C122.217 211.764 117.493 217.014 117.493 229.087C117.493 241.161 134.816 241.686 134.816 261.634C134.816 281.582 50.8248 315.703 40.8508 325.677C30.8768 335.651 11.4536 439.066 7.779 491.035C4.10437 543.005 13.5534 636.445 33.5013 666.367C53.4493 696.289 268.152 694.714 312.248 677.391C356.343 660.068 346.894 592.35 349.519 518.332C352.143 444.315 312.248 333.027 312.248 325.677C312.248 318.328 322.222 315.703 324.846 309.404C327.471 303.105 312.248 273.708 291.25 229.087Z" fill="white" stroke="#81EC40" stroke-width="13"/>
<path d="M49.2473 118.323C58.1716 92.6011 70.4202 67.4037 75.4947 50.6055C75.4947 50.6055 79.6524 54.9227 83.1484 55.9795C88.6059 57.6294 100.747 58.2395 100.747 58.2395C92.5232 68.9134 82.8438 87.3517 75.4946 101C70.2683 110.706 28.2495 170.293 26.1497 163.994C24.0499 157.694 42.5169 137.722 49.2473 118.323Z" fill="white"/>
<path d="M75.4947 50.6055L80.1765 46.0966L72.4806 38.1055L69.2724 48.7258L75.4947 50.6055ZM49.2473 118.323L43.1064 116.193L43.1064 116.193L49.2473 118.323ZM26.1497 163.994L19.9833 166.049L26.1497 163.994ZM75.4946 101L69.7716 97.9187L69.7716 97.9187L75.4946 101ZM100.747 58.2395L105.896 62.2067C107.372 60.2909 107.663 57.714 106.65 55.5177C105.637 53.3215 103.489 51.8691 101.074 51.7477L100.747 58.2395ZM83.1484 55.9795L85.0293 49.7576L85.0293 49.7576L83.1484 55.9795ZM69.2724 48.7258C66.8491 56.7476 62.6642 66.9128 57.8097 78.63C53.0122 90.2093 47.6424 103.119 43.1064 116.193L55.3883 120.454C59.7766 107.806 64.9932 95.2555 69.8197 83.6059C74.5891 72.0942 79.0657 61.2616 81.7169 52.4851L69.2724 48.7258ZM43.1064 116.193C40.0368 125.041 34.2009 134.215 28.8956 142.594C26.3484 146.616 23.8348 150.6 22.1206 154.005C21.2604 155.714 20.4653 157.538 19.9836 159.34C19.5311 161.034 19.1339 163.501 19.9833 166.049L32.3162 161.938C32.6406 162.912 32.3611 163.377 32.543 162.696C32.6955 162.126 33.0512 161.204 33.7322 159.851C35.1003 157.133 37.2305 153.731 39.8789 149.548C44.9647 141.516 51.7275 131.005 55.3883 120.454L43.1064 116.193ZM19.9833 166.049C20.4355 167.406 21.467 169.149 23.5188 170.191C25.4535 171.173 27.2985 171.018 28.3805 170.781C30.3053 170.36 31.8366 169.249 32.6197 168.647C34.4991 167.203 36.6748 164.958 38.8673 162.494C43.3756 157.426 49.1232 150.082 54.8614 142.384C66.2494 127.105 78.3449 109.417 81.2177 104.082L69.7716 97.9187C67.418 102.29 55.891 119.249 44.4381 134.615C38.7558 142.238 33.2783 149.217 29.1542 153.853C27.0305 156.241 25.5382 157.694 24.6974 158.34C24.1203 158.784 24.5285 158.316 25.6045 158.081C26.2622 157.937 27.7514 157.76 29.4035 158.599C31.1729 159.497 31.9952 160.975 32.3162 161.938L19.9833 166.049ZM81.2177 104.082C88.7137 90.1607 98.083 72.3473 105.896 62.2067L95.5984 54.2723C86.9634 65.4795 76.9739 84.5427 69.7716 97.9187L81.2177 104.082ZM100.747 58.2395C101.074 51.7477 101.074 51.7477 101.074 51.7477C101.074 51.7477 101.074 51.7477 101.074 51.7477C101.075 51.7477 101.074 51.7477 101.074 51.7477C101.074 51.7477 101.072 51.7476 101.071 51.7475C101.067 51.7473 101.06 51.747 101.05 51.7465C101.031 51.7455 101.001 51.7439 100.96 51.7417C100.878 51.7373 100.754 51.7304 100.592 51.721C100.268 51.7022 99.7933 51.6732 99.2048 51.6333C98.025 51.5533 96.4006 51.4302 94.6188 51.2583C90.8577 50.8953 87.0619 50.3721 85.0293 49.7576L81.2674 62.2015C84.6924 63.2368 89.6961 63.8436 93.3701 64.1981C95.3058 64.385 97.0579 64.5175 98.3252 64.6035C98.9602 64.6465 99.4768 64.6781 99.838 64.6991C100.019 64.7096 100.161 64.7175 100.259 64.7228C100.309 64.7254 100.347 64.7275 100.374 64.7289C100.388 64.7296 100.399 64.7302 100.407 64.7306C100.41 64.7308 100.414 64.7309 100.416 64.731C100.417 64.7311 100.418 64.7312 100.419 64.7312C100.42 64.7312 100.42 64.7312 100.42 64.7313C100.421 64.7313 100.421 64.7313 100.747 58.2395ZM85.0293 49.7576C84.5894 49.6247 83.513 49.003 82.1335 47.8712C81.543 47.3867 81.0321 46.9218 80.6705 46.5791C80.4918 46.4097 80.3548 46.2751 80.2686 46.1891C80.2256 46.1463 80.1957 46.116 80.1798 46.0999C80.1719 46.0918 80.1676 46.0874 80.167 46.0867C80.1667 46.0864 80.1673 46.0871 80.1689 46.0887C80.1697 46.0895 80.1707 46.0906 80.172 46.0919C80.1726 46.0925 80.1733 46.0932 80.1741 46.094C80.1744 46.0944 80.175 46.095 80.1752 46.0952C80.1759 46.0959 80.1765 46.0966 75.4947 50.6055C70.8128 55.1144 70.8135 55.1151 70.8142 55.1158C70.8144 55.1161 70.8151 55.1168 70.8156 55.1173C70.8166 55.1184 70.8177 55.1195 70.8188 55.1207C70.8211 55.123 70.8237 55.1256 70.8265 55.1285C70.8321 55.1343 70.8387 55.1412 70.8464 55.1491C70.8617 55.1648 70.8811 55.1847 70.9046 55.2086C70.9513 55.2562 71.0141 55.3197 71.0917 55.3969C71.2465 55.5512 71.4616 55.7622 71.7273 56.014C72.2546 56.5139 73.0016 57.1943 73.8875 57.9212C75.461 59.2122 78.2114 61.2776 81.2674 62.2015L85.0293 49.7576Z" fill="#81EC40"/>
<path d="M226.156 95.7513C216.497 102.471 214.783 110.1 215.133 113.075L139.54 113.075C136.215 100.826 127.886 74.3335 121.167 66.3543C112.768 56.3802 104.894 59.005 85.471 56.3803C69.9326 54.2805 68.8477 25.0586 70.2476 10.7101C110.143 7.91037 194.975 3.99078 215.133 10.7101C240.33 19.1092 280.226 62.6797 275.501 76.3283C270.777 89.9769 238.23 87.3522 226.156 95.7513Z" fill="white" stroke="#81EC40" stroke-width="13"/>
</svg>

<svg width="357" height="697" fill="none" xmlns="http://www.w3.org/2000/svg"><path d="M46.89 43.744V21.696l22.632-.134 2.53 22.182H46.891zm244.36 185.343c-16.798-35.696-58.794-92.215-77.692-116.013l-74.068.158c-8.574 1.75-18.483 5.19-21.997 11.391-8.924 15.748 11.024 18.373 11.024 32.022 0 13.648-11.024 5.774-11.024 17.323s17.323 20.998 11.024 29.397c-6.3 8.399-11.024 13.649-11.024 25.722 0 12.074 17.323 12.599 17.323 32.547 0 19.948-83.991 54.069-93.965 64.043-9.974 9.974-29.397 113.389-33.072 165.358-3.675 51.97 5.774 145.41 25.722 175.332 19.948 29.922 234.651 28.347 278.747 11.024 44.095-17.323 34.646-85.041 37.271-159.059 2.624-74.017-37.271-185.305-37.271-192.655 0-7.349 9.974-9.974 12.598-16.273 2.625-6.299-12.598-35.696-33.596-80.317z" fill="#fff" stroke="#81EC40" stroke-width="13"/><path d="M49.247 118.323c8.925-25.722 21.173-50.92 26.248-67.718 0 0 4.157 4.318 7.653 5.375 5.458 1.65 17.599 2.26 17.599 2.26C92.523 68.912 82.844 87.352 75.495 101c-5.227 9.706-47.246 69.293-49.345 62.994-2.1-6.3 16.367-26.272 23.097-45.671z" fill="#fff"/><path d="M75.495 50.605l4.681-4.508-7.695-7.992-3.209 10.62 6.223 1.88zm-26.248 67.718l-6.14-2.13 6.14 2.13zM26.15 163.994l-6.167 2.055 6.167-2.055zM75.495 101l-5.723-3.081L75.495 101zm25.252-42.76l5.149 3.967a6.5 6.5 0 00-4.822-10.46l-.327 6.492zm-17.599-2.26l1.881-6.222-1.88 6.221zm-13.876-7.254C66.85 56.748 62.664 66.913 57.81 78.63c-4.798 11.58-10.168 24.489-14.704 37.563l12.282 4.261c4.389-12.648 9.605-25.198 14.432-36.848 4.77-11.512 9.246-22.344 11.897-31.12l-12.445-3.76zm-26.166 67.467c-3.07 8.848-8.905 18.022-14.21 26.401-2.548 4.022-5.061 8.006-6.775 11.411-.86 1.709-1.656 3.533-2.137 5.335-.453 1.694-.85 4.161 0 6.709l12.332-4.111c.325.974.045 1.439.227.758.153-.57.508-1.492 1.19-2.845 1.367-2.718 3.498-6.12 6.146-10.303 5.086-8.032 11.849-18.543 15.51-29.094l-12.283-4.261zm-23.123 49.856c.453 1.357 1.484 3.1 3.536 4.142 1.934.982 3.78.827 4.862.59 1.924-.421 3.456-1.532 4.239-2.134 1.88-1.444 4.055-3.689 6.247-6.153 4.509-5.068 10.256-12.412 15.994-20.11 11.388-15.279 23.484-32.967 26.357-38.302l-11.446-6.163c-2.354 4.371-13.881 21.33-25.334 36.696-5.682 7.623-11.16 14.602-15.284 19.238-2.123 2.388-3.616 3.841-4.457 4.487-.577.444-.168-.024.908-.259a5.73 5.73 0 013.799.518 5.858 5.858 0 012.912 3.339l-12.333 4.111zm61.235-61.967c7.496-13.921 16.865-31.735 24.678-41.875l-10.298-7.935C86.963 65.48 76.974 84.542 69.772 97.92l11.446 6.163zm19.529-45.842l.327-6.492c.001 0 0 0 0 0h-.003l-.021-.002a98.264 98.264 0 01-1.845-.113 164.31 164.31 0 01-4.586-.375c-3.761-.363-7.557-.886-9.59-1.5l-3.762 12.444c3.425 1.035 8.43 1.642 12.103 1.996a177.03 177.03 0 006.889.525l.115.006.033.002h.009a.03.03 0 00.004 0l.327-6.491zm-15.718-8.482c-.44-.133-1.516-.755-2.895-1.887a27.787 27.787 0 01-1.865-1.682l-.09-.09-.012-.012.002.002.003.003.002.002.001.001s.002.002-4.68 4.51c-4.682 4.51-4.681 4.51-4.68 4.51v.002l.004.004a.608.608 0 01.007.008l.02.02a17.833 17.833 0 00.246.248 40.732 40.732 0 002.796 2.524c1.573 1.291 4.323 3.357 7.38 4.28l3.761-12.443z" fill="#81EC40"/><path d="M226.156 95.751c-9.659 6.72-11.373 14.349-11.023 17.324H139.54c-3.325-12.249-11.654-38.742-18.373-46.72-8.399-9.975-16.273-7.35-35.696-9.975-15.538-2.1-16.623-31.321-15.223-45.67 39.895-2.8 124.727-6.72 144.885 0 25.197 8.4 65.093 51.97 60.368 65.618-4.724 13.649-37.271 11.024-49.345 19.423z" fill="#fff" stroke="#81EC40" stroke-width="13"/></svg>
